X:1
T:I Wish I Had Someone To LOve Me
M:3/4
L:1/4
K:D
 A| A B c| d f3/2 A/2| B3| A2 z| F G A| A B d| e3-| e2 z| A B3/2 c/2|\
 d f A| B3| A2 F| G A B| A d3/2 c/2| d3-| d z||
